X:17
T:Old Joe Clark
S:Sarah Comer
L:1/4
Z:abc-transcription Josh Larios <hades@elsewhere.org>, 2017.02.14
G:Key: A Mixolydian
K:A Mix
|: "A"efgf | edc2 | efgf | "G"e2e2 |
"A"efgf | edc2 | Ac"E"BB | "A"A2A2 ::
"A"A>BA2 | edc2 | AAcA | "G"B2B2 |
"A"A>BA c/d/ | edc2 | Ac"E"BB | "A"A2A2 :|

